X:1
T:Form Heav'n O Praise the Lord
T:From Heav'n O Praise the Lord
T:Psalm 148
T:Horatio R. Palmer, 1834-1907
C:Horatio R. Palmer, 1834-1907
%%score 1 { ( 2 3 ) | ( 4 5 ) }
L:1/8
Q:1/4=172
M:4/4
K:C
V:1 treble nm="Violin" snm="Vln."
V:2 treble nm="Piano" snm="Pno."
V:3 treble 
V:4 bass 
V:5 bass 
V:1
"^Vivace" G2 | G2 G2 E2 C2 | G6- G2- | G8- | G6 G2 | G2 E2 D2 C2 | [FA]6 G2 | G2 G2 G2 ^F2 | %8
 G6 G2 | B4 c4 | d6 G2 | B4 c4 | d6 G2 | e2 d2 c2 G2 | A2 B2 c2 d2 | [Ec]4 [DB]4 | [Ec]6 x2 |] %17
V:2
 G2 | G2 G2 E2 C2 | G6 E2 | [B,D]2 [CE]2 [DF]2 [EG]2 | E6 G2 | G2 E2 D2 C2 | [FA]6 [CG]2 | %7
 [DG]2 [EG]2 [DG]2 [C^F]2 | G6 G2 | [FB]4 [Ec]4 | d6 G2 | [FB]4 [Ec]4 | d6 G2 | e2 d2 c2 G2 | %14
 A2 B2 c2 d2 | c4 B4 | [Ec]6 x2 |] %17
V:3
 G2 | G2 G2 E2 C2 | G6 C2 | x8 | C6 G2 | G2 E2 D2 C2 | x8 | x8 | B,6 G2 | x8 | F6 G2 | x8 | F6 G2 | %13
 G2 F2 E2 C2 | F2 F2 E2 AF | E4 (D2 F2) | x8 |] %17
V:4
 G,2 | G,2 G,2 E,2 C,2 | G,6- G,2- | G,8- | G,6 G,2 | G,2 E,2 D,2 C,2 | [F,C]6 [E,C]2 | %7
 [D,B,]2 [C,C]2 [D,B,]2 [D,A,]2 | G,6 G,2 | D4 C4 | B,6 G,2 | D4 C4 | B,6 G,2 | C2 B,2 C2 C2 | %14
 C2 D2 C2 A,2 | G,4 G,4 | G,6 x2 |] %17
V:5
 x2 | x8 | G,6 C,2 | G,,2 G,,2 G,,2 G,,2 | C,6 G,2 | G,2 E,2 D,2 C,2 | x8 | x8 | G,,6 z2 | %9
 z2 G,2 G,2 G,2 | G,6 z2 | z2 G,2 G,2 G,2 | G,6 G,2 | C2 G,2 A,2 E,2 | F,2 D,2 E,2 F,2 | G,4 G,,4 | %16
 C,6 x2 |] %17

